images/sitelogo.svg

<svg width="110" height="18" viewBox="0 0 110 18" fill="none" xmlns="http://www.w3.org/2000/svg">
<path fill-rule="evenodd" clip-rule="evenodd" d="M89.2051 17.8056C90.1061 17.8056 90.9122 17.7001 91.6231 17.4892C92.334 17.2783 92.9313 16.9846 93.4149 16.6082C93.8985 16.2318 94.2994 15.7707 94.6177 15.2247C94.936 14.6788 95.1654 14.0832 95.3059 13.438C95.4464 12.7927 95.5167 12.0855 95.5167 11.3162V0.198529H92.6771V1.50138H92.6275C92.115 1.01333 91.526 0.641085 90.8605 0.384651C90.195 0.128217 89.5027 0 88.7835 0C87.6509 0 86.6341 0.268842 85.7331 0.806526C84.832 1.34421 84.1314 2.09076 83.6312 3.04619C83.1311 4.00161 82.881 5.07491 82.881 6.26608C82.881 7.47381 83.1435 8.54504 83.6684 9.47978C84.1934 10.4145 84.9147 11.1321 85.8323 11.6326C86.7499 12.133 87.7832 12.3833 88.9323 12.3833C90.4699 12.3833 91.7223 11.8787 92.6895 10.8695H92.7391V12.1847C92.7391 13.0616 92.4167 13.7895 91.7719 14.3686C91.1271 14.9476 90.2178 15.2371 89.0439 15.2371C88.242 15.2371 87.5373 15.1379 86.9297 14.9393C86.3221 14.7408 85.6215 14.4306 84.8279 14.0087L84.1582 16.5152C84.8527 16.9288 85.6339 17.2472 86.5019 17.4706C87.3699 17.6939 88.2709 17.8056 89.2051 17.8056ZM30.1229 6.41498V12.6066H27.2832V6.142C27.2832 3.7762 26.4607 2.59329 24.8156 2.59329C23.9476 2.59329 23.2346 2.93451 22.6766 3.61696C22.1186 4.2994 21.8396 5.23208 21.8396 6.41498V12.5942H19V0.198529H21.8396V1.91085H21.8768C22.3811 1.29871 22.9701 0.829274 23.6438 0.502528C24.3176 0.175781 25.0182 0.0124081 25.7456 0.0124081C27.4734 0.0124081 28.7051 0.698989 29.4409 2.07215H29.4905C30.0113 1.40211 30.6519 0.891314 31.4125 0.539752C32.173 0.188189 33.0121 0.0124081 33.9297 0.0124081C35.3268 0.0124081 36.4014 0.461167 37.1537 1.35869C37.906 2.2562 38.2821 3.61075 38.2821 5.42233V12.6066H35.4425V6.142C35.4425 3.7762 34.6324 2.59329 33.0121 2.59329C32.1854 2.59329 31.4972 2.93451 30.9475 3.61696C30.3977 4.2994 30.1229 5.23208 30.1229 6.41498ZM49.9092 10.9315C48.9668 12.1723 47.6524 12.7927 45.966 12.7927C45.1146 12.7927 44.3189 12.6418 43.579 12.3398C42.8391 12.0379 42.2047 11.614 41.6756 11.068C41.1465 10.5221 40.7291 9.85202 40.4232 9.0579C40.1173 8.26379 39.9644 7.39522 39.9644 6.45221C39.9644 5.53401 40.1173 4.67371 40.4232 3.87132C40.7291 3.06893 41.1465 2.38649 41.6756 1.82399C42.2047 1.26149 42.8371 0.818934 43.5728 0.496324C44.3085 0.173713 45.098 0.0124081 45.9412 0.0124081C47.5532 0.0124081 48.8304 0.570772 49.7728 1.6875H49.8224V0.198529H52.6621V12.5942H49.9464V10.9315H49.9092ZM46.4124 10.2119C45.3626 10.2119 44.507 9.86236 43.8456 9.16337C43.1843 8.46438 42.8536 7.5648 42.8536 6.46461C42.8536 5.29825 43.1946 4.36144 43.8766 3.65418C44.5586 2.94692 45.408 2.59329 46.4248 2.59329C47.4334 2.59329 48.2704 2.96346 48.9358 3.70381C49.6013 4.44416 49.934 5.36443 49.934 6.46461C49.934 7.5648 49.593 8.46438 48.911 9.16337C48.229 9.86236 47.3962 10.2119 46.4124 10.2119ZM66.7692 5.29825V12.6066H63.9296V6.03033C63.9296 5.38511 63.8717 4.83915 63.756 4.39246C63.6403 3.94577 63.4625 3.59214 63.2228 3.33157C62.9831 3.071 62.7041 2.88281 62.3858 2.767C62.0675 2.65119 61.6852 2.59329 61.2388 2.59329C60.2633 2.59329 59.4842 2.92417 58.9014 3.58594C58.3186 4.2477 58.0272 5.17417 58.0272 6.36535V12.5942H55.1875V0.198529H58.0272V1.89844H58.0644C58.5852 1.28631 59.2052 0.818934 59.9244 0.496324C60.6436 0.173713 61.4082 0.0124081 62.2184 0.0124081C63.6403 0.0124081 64.7542 0.444623 65.5602 1.30905C66.3662 2.17348 66.7692 3.50322 66.7692 5.29825ZM74.4407 12.7927C76.1271 12.7927 77.4415 12.1723 78.3839 10.9315H78.4212V12.5942H81.1368V0.198529H78.2971V1.6875H78.2475C77.3051 0.570772 76.0279 0.0124081 74.4159 0.0124081C73.5727 0.0124081 72.7832 0.173713 72.0475 0.496324C71.3118 0.818934 70.6794 1.26149 70.1503 1.82399C69.6212 2.38649 69.2038 3.06893 68.8979 3.87132C68.592 4.67371 68.4391 5.53401 68.4391 6.45221C68.4391 7.39522 68.592 8.26379 68.8979 9.0579C69.2038 9.85202 69.6212 10.5221 70.1503 11.068C70.6794 11.614 71.3138 12.0379 72.0537 12.3398C72.7936 12.6418 73.5893 12.7927 74.4407 12.7927ZM72.3203 9.16337C72.9817 9.86236 73.8373 10.2119 74.8871 10.2119C75.8709 10.2119 76.7037 9.86236 77.3857 9.16337C78.0677 8.46438 78.4087 7.5648 78.4087 6.46461C78.4087 5.36443 78.076 4.44416 77.4105 3.70381C76.7451 2.96346 75.9081 2.59329 74.8995 2.59329C73.8827 2.59329 73.0333 2.94692 72.3513 3.65418C71.6693 4.36144 71.3283 5.29825 71.3283 6.46461C71.3283 7.5648 71.659 8.46438 72.3203 9.16337ZM86.7685 8.79113C87.4339 9.44049 88.2792 9.76517 89.3043 9.76517C90.3376 9.76517 91.1788 9.42394 91.8277 8.7415C92.4766 8.05905 92.8011 7.19256 92.8011 6.142C92.8011 5.09972 92.4684 4.25184 91.8029 3.59835C91.1374 2.94485 90.3046 2.61811 89.3043 2.61811C88.2544 2.61811 87.4029 2.94899 86.7499 3.61075C86.0968 4.27252 85.7703 5.12868 85.7703 6.17923C85.7703 7.27114 86.103 8.14177 86.7685 8.79113ZM103.635 12.7927C104.792 12.7927 105.811 12.5818 106.691 12.1599C107.572 11.7381 108.293 11.1673 108.855 10.4476L106.871 8.7477C106.094 9.72381 105.065 10.2119 103.783 10.2119C102.874 10.2119 102.103 9.95956 101.471 9.45496C100.838 8.95037 100.431 8.25965 100.249 7.38281H109.277C109.326 7.08502 109.351 6.70864 109.351 6.25368C109.351 5.05423 109.107 3.983 108.619 3.03998C108.132 2.09697 107.429 1.35662 106.511 0.818934C105.594 0.28125 104.536 0.0124081 103.337 0.0124081C102.486 0.0124081 101.688 0.167509 100.944 0.477711C100.2 0.787914 99.5591 1.22013 99.0218 1.77436C98.4845 2.32858 98.0629 3.00276 97.757 3.79688C97.4511 4.59099 97.2982 5.45542 97.2982 6.39017C97.2982 7.65579 97.5751 8.77872 98.129 9.75896C98.6829 10.7392 99.4393 11.4899 100.398 12.011C101.357 12.5322 102.436 12.7927 103.635 12.7927ZM100.299 5.08732H106.499C106.317 4.31801 105.968 3.71002 105.451 3.26333C104.935 2.81664 104.279 2.59329 103.486 2.59329C102.7 2.59329 102.023 2.81043 101.452 3.24471C100.882 3.679 100.497 4.2932 100.299 5.08732Z" fill="#242D52"/>
<path fill-rule="evenodd" clip-rule="evenodd" d="M4.17857 2.18487C4.17857 3.39155 3.24317 4.36975 2.08929 4.36975C0.935405 4.36975 0 3.39155 0 2.18487C0 0.978201 0.935405 0 2.08929 0C3.24317 0 4.17857 0.978201 4.17857 2.18487ZM4.17857 10.0504C4.17857 11.2571 3.24317 12.2353 2.08929 12.2353C0.935405 12.2353 0 11.2571 0 10.0504C0 8.84375 0.935405 7.86555 2.08929 7.86555C3.24317 7.86555 4.17857 8.84375 4.17857 10.0504ZM9.61071 4.36975C10.7646 4.36975 11.7 3.39155 11.7 2.18487C11.7 0.978201 10.7646 0 9.61071 0C8.45683 0 7.52143 0.978201 7.52143 2.18487C7.52143 3.39155 8.45683 4.36975 9.61071 4.36975Z" fill="#F3603C"/>
<ellipse opacity="0.5" cx="9.61077" cy="10.1378" rx="2.08929" ry="2.18487" fill="#F3603C"/>
</svg>

<svg xmlns="http://www.w3.org/2000/svg" width="110" height="18" fill="none"><path fill="#242D52" fill-rule="evenodd" d="M89.205 17.806c.901 0 1.707-.106 2.418-.317.711-.21 1.308-.504 1.792-.88a4.79 4.79 0 0 0 1.203-1.384 6.098 6.098 0 0 0 .688-1.787 9.98 9.98 0 0 0 .21-2.122V.2h-2.839V1.5h-.05A5.3 5.3 0 0 0 90.861.385 5.727 5.727 0 0 0 88.782 0c-1.132 0-2.149.269-3.05.807a5.547 5.547 0 0 0-2.102 2.24c-.5.955-.75 2.028-.75 3.22 0 1.207.263 2.278.787 3.213a5.42 5.42 0 0 0 2.164 2.153c.918.5 1.951.75 3.1.75 1.538 0 2.79-.504 3.757-1.513h.05v1.315c0 .877-.322 1.604-.967 2.184-.645.579-1.554.868-2.728.868-.802 0-1.507-.1-2.114-.298-.608-.198-1.309-.508-2.102-.93l-.67 2.506a8.876 8.876 0 0 0 2.344.956c.868.223 1.769.335 2.703.335ZM30.123 6.415v6.192h-2.84V6.142c0-2.366-.822-3.549-2.467-3.549-.868 0-1.581.342-2.14 1.024-.557.682-.836 1.615-.836 2.798v6.18H19V.198h2.84V1.91h.037A5.237 5.237 0 0 1 23.644.503a4.761 4.761 0 0 1 2.102-.49c1.727 0 2.96.686 3.695 2.06h.05A5.129 5.129 0 0 1 31.413.54c.76-.352 1.6-.528 2.517-.528 1.397 0 2.471.45 3.224 1.347.752.897 1.128 2.252 1.128 4.063v7.185h-2.84V6.142c0-2.366-.81-3.549-2.43-3.549-.827 0-1.515.342-2.064 1.024-.55.682-.825 1.615-.825 2.798Zm19.786 4.516c-.942 1.241-2.257 1.862-3.943 1.862-.851 0-1.647-.151-2.387-.453a5.517 5.517 0 0 1-1.903-1.272c-.53-.546-.947-1.216-1.253-2.01-.306-.794-.459-1.663-.459-2.606 0-.918.153-1.778.46-2.58.305-.803.723-1.486 1.252-2.048A5.832 5.832 0 0 1 45.942.012c1.611 0 2.888.559 3.83 1.675h.05V.2h2.84v12.395h-2.716v-1.662h-.037Zm-3.497-.72c-1.05 0-1.905-.349-2.566-1.048-.662-.699-.992-1.598-.992-2.698 0-1.167.34-2.104 1.023-2.81.682-.708 1.531-1.062 2.548-1.062 1.008 0 1.845.37 2.51 1.11.666.741.999 1.661.999 2.762 0 1.1-.341 2-1.023 2.698-.682.7-1.515 1.049-2.499 1.049ZM66.77 5.299v7.309h-2.84V6.03c0-.645-.057-1.19-.173-1.638-.116-.446-.294-.8-.533-1.06a2.103 2.103 0 0 0-.837-.565c-.319-.116-.7-.174-1.147-.174-.976 0-1.755.331-2.338.993-.582.662-.874 1.588-.874 2.78v6.228h-2.84V.2h2.84v1.7h.037a5.224 5.224 0 0 1 1.86-1.403 5.54 5.54 0 0 1 2.294-.484c1.422 0 2.536.433 3.342 1.297.806.864 1.21 2.194 1.21 3.99Zm7.672 7.495c1.686 0 3-.62 3.943-1.861h.037v1.662h2.716V.2h-2.84v1.488h-.05C77.306.571 76.028.012 74.416.012a5.832 5.832 0 0 0-4.266 1.812c-.529.562-.946 1.245-1.252 2.047a7.184 7.184 0 0 0-.459 2.581c0 .943.153 1.812.459 2.606.306.794.723 1.464 1.252 2.01.53.546 1.164.97 1.904 1.272.74.302 1.535.453 2.387.453Zm-2.12-3.63c.66.7 1.516 1.049 2.566 1.049.984 0 1.817-.35 2.499-1.049.682-.699 1.023-1.598 1.023-2.698 0-1.1-.333-2.02-.999-2.761-.665-.74-1.502-1.11-2.51-1.11-1.017 0-1.867.353-2.549 1.06-.682.707-1.023 1.644-1.023 2.81 0 1.1.331 2 .992 2.7Zm14.448-.372c.665.65 1.51.974 2.535.974 1.034 0 1.875-.341 2.524-1.024.649-.682.973-1.548.973-2.599 0-1.042-.333-1.89-.998-2.544-.666-.653-1.498-.98-2.499-.98-1.05 0-1.901.331-2.554.993-.653.662-.98 1.518-.98 2.568 0 1.092.333 1.963.999 2.612Zm16.866 4.002c1.157 0 2.176-.211 3.056-.633.881-.422 1.602-.993 2.164-1.712l-1.984-1.7c-.777.976-1.806 1.464-3.088 1.464-.909 0-1.68-.252-2.312-.757-.633-.505-1.04-1.195-1.222-2.072h9.028a7.15 7.15 0 0 0 .074-1.13c0-1.199-.244-2.27-.732-3.213a5.394 5.394 0 0 0-2.108-2.221c-.917-.538-1.975-.807-3.174-.807-.851 0-1.649.156-2.393.466a5.696 5.696 0 0 0-1.922 1.296c-.538.555-.96 1.229-1.265 2.023a7.155 7.155 0 0 0-.459 2.593c0 1.266.277 2.389.831 3.369a5.69 5.69 0 0 0 2.269 2.252c.959.521 2.038.782 3.237.782Zm-3.336-7.706h6.2c-.182-.769-.531-1.377-1.048-1.824-.516-.446-1.172-.67-1.965-.67-.786 0-1.463.217-2.034.652-.57.434-.955 1.048-1.153 1.842Z" clip-rule="evenodd"/><path fill="#F3603C" fill-rule="evenodd" d="M4.179 2.185c0 1.207-.936 2.185-2.09 2.185S0 3.392 0 2.185.935 0 2.09 0c1.153 0 2.089.978 2.089 2.185Zm0 7.865c0 1.207-.936 2.185-2.09 2.185S0 11.257 0 10.05c0-1.206.935-2.184 2.09-2.184 1.153 0 2.089.978 2.089 2.184ZM9.61 4.37c1.154 0 2.089-.978 2.089-2.185S10.765 0 9.61 0C8.458 0 7.522.978 7.522 2.185s.936 2.185 2.09 2.185Z" clip-rule="evenodd"/><ellipse cx="9.611" cy="10.138" fill="#F3603C" opacity=".5" rx="2.089" ry="2.185"/></svg>
